X:1
T:Wiltshire (Stephenson), 86.88.66
T:Joseph Stephenson, 1760
T:Wiltshire (Stephenson), 86.88.66
T:Public Domain
C:Joseph Stephenson, 1760
Z:Public Domain
%%score ( 1 2 ) ( 3 4 )
L:1/8
M:4/4
K:C
V:1 treble 
V:2 treble 
V:3 bass 
V:4 bass 
V:1
 [Gc]4 | [ce]2 [ce]2 [Bd]2 [GB]2 | (c3 d e2) [Bd]2 | c8 | [Bd]4 [ce]2 [Ac]2 | [Af]4 [ce]4 | %6
 [Bd]6 G2 | [Gc]2 [Gc]2 [Gc]2 [Gc]2 | A4 G4 | [Gc]6 [Gd]2 | [ce]2 [ce]2 [ce]2 [ce]2 | [Ac]4 [Gd]4 | %12
 [GB]8 | [Bd]4 ([ce]3 [df] | [ce]3 [Bd] [Ac]3 [GB] | [FA]2) [EG]2 (AB) [Gc]2 | [Gd]8 | %17
 [Gc]4 [Ae]2 (fe) | [Gd]6 [Gd]2 | [Gc]4 |] %20
V:2
 x4 | x8 | c6 x2 | c8 | x8 | x8 | x6 G2 | x8 | A4 G4 | x8 | x8 | x8 | x8 | x8 | x8 | x4 G2 x2 | %16
 x8 | x6 A2 | x8 | x4 |] %20
V:3
 C4 | [A,C]2 [A,C]2 [G,B,]2 [G,C]2 | ([E,C]3 [D,B,] [C,C]2) [G,,D]2 | [C,E]8 | [G,G]4 C2 [A,E]2 | %5
 [F,D]4 [C,C]4 | [G,D]6 [G,D]2 | [C,E]2 [C,E]2 [C,E]2 [C,E]2 | [F,C]4 [G,D]4 | [C,E]6 [G,D]2 | %10
 [CG]2 [CG]2 [CG]2 [CG]2 | [A,E]4 [D,D]4 | [G,D]8 | [G,D]4 C3 [B,D] | ([A,C]3 [G,B,] [A,C]3 [G,D] | %15
 [F,C]2) [E,E]2 [D,D]2 [C,E]2 | [G,D]8 | [CE]4 [A,C]2 [F,C]2 | [G,G]6 [G,G]2 | [C,E]4 |] %20
V:4
 C4 | x8 | x8 | x8 | x4 C2 x2 | x8 | x8 | x8 | x8 | x8 | x8 | x8 | x8 | x4 C3 x | x8 | x8 | x8 | %17
 x8 | x8 | x4 |] %20

